X:1
T:Title
%%score 1 { 2 | 3 }
L:1/8
Q:1/4=82
M:2/4
K:Eb
V:1 treble nm="Grand Piano, Soprano"
V:2 bass nm="Choir Pad, Feed My Lambs"
V:3 bass 
V:1
 [EG]>[EG] [E_G][E=G] | [Ec][EB] [EG]E | [DF][DF] [DF]2 | [EG][EG] [EG]2 | [EG]>[EG] [E_G][E=G] | %5
w: By~Marin~E.~Ogden * * *|||||
 [Ec][EB] [EG]E | [DF][EG] [DA][B,D] | [B,E]4 | [Ec][D=B] [Ec]2 | [EB][E=A] [EB]2 | %10
w: |||||
 [FA][=EG] [FA][DF] | [EG][FA] [GB][EG] | [Ec][D=B] [Ec]2 | [EB][E=A] [EB]2 | [FA][EG] [DF][FA] | %15
w: |||||
 [EG][B,F] [B,E]2- | [B,E]4 |] %17
w: ||
V:2
 B,>B, =A,B, | A,G, B,G, | B,B, A,2 | B,B, B,2 | B,>B, =A,B, | A,G, B,G, | A,G, F,A, | G,4 | %8
 A,A, A,2 | G,_G, =G,2 | B,B, B,B, | B,B, B,B, | A,A, A,2 | G,_G, =G,2 | B,B, B,B, | B,A, G,2- | %16
 G,4 |] %17
V:3
 E,>E, E,E, | E,E, E,E, | B,,B,, B,,2 | E,E, E,2 | E,>E, E,E, | E,E, E,E, | B,,B,, B,,B,, | E,4 | %8
 A,,A,, A,,2 | E,E, E,2 | B,,B,, B,,B,, | E,E, E,E, | A,,A,, A,,2 | E,E, E,2 | B,,B,, B,,B,, | %15
 B,,B,, [E,,E,]2- | [E,,E,]4 |] %17

